X:185
T:Rattling Bog
R:Reel
C:Trad
M:4/4
L:1/4
K:D
d/2e/2|:f2 f3/2e/2|dB B3/2B/2|Ad d/2c/2d/2e/2|
      |fe e2|f2 f3/2e/2|dB B3/2B/2|Aa af|ed d e:|
      |:fd ed|fd ed|fa af|ed ed/2e/2|
      |fd ed|fd ed|fa af|ed d e:|
